X: 1572
T: Jacko Kevans' 3 part Mazurka
C:Jack Kevans
B: australian traditional tunes wiki
M:3/4
L:1/8
R: Mazurka
Q: 1/4=100
K:D
V:1 
fe|:"D"dF Ad Ad|"A"cE GB ed|cE Gc BA|"D"dD Fd fe|dF Ad Ad|"A"cE GB ed|cE Gc BA|1"D"d4 fe:|2"D"d4B2||
|:"D"A/d/dd2dB|"A"A/c/cc2cA|BG Ec BA|"D"dD FA dB|A/d/dd2dB|"A"A/c/cc2cA|BG Ec BA|1"D"[D4d4]B2:|2"D"[D4d4]e2||
||"D"d2 (3dBd (3fdf |"A"a4ge|c2c'2b2|"D"(3afa d'a "A7"ge|"D"d2 (3dBd (3fdf|"A"a4ge|c2c'2bc|"D"[d4d'4]B2|
"D"d2f2a2|"A"a4ge|c2c'2b2|"D"(3afa d'a "A7"ge|"D" d2 (3dBd (3fdf|"A"a4ge|c2c'2bc|"D"[d'6d6]||
% abcbook-tune_id 6342d53a21ddb032001db13f


% abcbook-boost 0
% abcbook-tablature 
% abcbook-transpose 
% abcbook-lastupdated 1665324371694
% abcbook-soundfonts 
% abcbook-repeats 1
% NFF Book 2016

